polaris-icons/icons/newicons/FirstVisitMajor.svg

<svg width="20" height="20" viewBox="0 0 20 20" fill="none" xmlns="http://www.w3.org/2000/svg">
<path d="M8.79545 8.43927L9.50001 8.13732V11.9999H8.50001C8.0858 11.9999 7.75001 12.3357 7.75001 12.7499C7.75001 13.1641 8.0858 13.4999 8.50001 13.4999H12C12.4142 13.4999 12.75 13.1641 12.75 12.7499C12.75 12.3357 12.4142 11.9999 12 11.9999H11V7.75818C11 6.86079 10.0824 6.25575 9.25761 6.60925L8.20457 7.06055C7.82385 7.22372 7.64748 7.66463 7.81065 8.04535C7.97382 8.42607 8.41473 8.60244 8.79545 8.43927Z" fill="black"/>
<path fill-rule="evenodd" clip-rule="evenodd" d="M12.2089 3.26388C11.3419 1.37526 8.65816 1.37525 7.79113 3.26388C7.58806 3.70623 7.07839 3.91735 6.62201 3.74815C4.67346 3.02577 2.7758 4.92343 3.49818 6.87198C3.66738 7.32836 3.45627 7.83803 3.01392 8.0411C1.12528 8.90813 1.12529 11.5918 3.01392 12.4589C3.45627 12.6619 3.66738 13.1716 3.49818 13.628C2.7758 15.5765 4.67346 17.4742 6.62201 16.7518C7.07839 16.5826 7.58806 16.7937 7.79113 17.2361C8.65816 19.1247 11.3419 19.1247 12.2089 17.2361C12.412 16.7937 12.9216 16.5826 13.378 16.7518C15.3266 17.4742 17.2242 15.5765 16.5018 13.628C16.3326 13.1716 16.5437 12.6619 16.9861 12.4589C18.8747 11.5918 18.8747 8.90813 16.9861 8.0411C16.5438 7.83803 16.3326 7.32836 16.5018 6.87198C17.2242 4.92343 15.3266 3.02577 13.378 3.74815C12.9216 3.91735 12.412 3.70624 12.2089 3.26388ZM9.15434 3.88971C9.48628 3.16665 10.5137 3.16665 10.8457 3.88971C11.3761 5.04513 12.7073 5.59655 13.8994 5.15461C14.6454 4.87805 15.3719 5.60456 15.0954 6.35056C14.6534 7.54264 15.2049 8.87388 16.3603 9.40431C17.0833 9.73625 17.0833 10.7637 16.3603 11.0956C15.2049 11.6261 14.6534 12.9573 15.0954 14.1494C15.3719 14.8954 14.6454 15.6219 13.8994 15.3453C12.7073 14.9034 11.3761 15.4548 10.8457 16.6102C10.5137 17.3333 9.48628 17.3333 9.15434 16.6102C8.62391 15.4548 7.29267 14.9034 6.10059 15.3453C5.3546 15.6219 4.62808 14.8954 4.90464 14.1494C5.34658 12.9573 4.79516 11.6261 3.63974 11.0956C2.91668 10.7637 2.91668 9.73625 3.63974 9.40431C4.79516 8.87388 5.34658 7.54264 4.90464 6.35056C4.62808 5.60456 5.3546 4.87805 6.10059 5.15461C7.29267 5.59655 8.62391 5.04513 9.15434 3.88971Z" fill="black"/>
</svg>

<svg viewBox="0 0 20 20" fill="none" xmlns="http://www.w3.org/2000/svg"><path d="m8.795 8.44.705-.303v3.863h-1a.75.75 0 0 0 0 1.5h3.5a.75.75 0 0 0 0-1.5h-1v-4.242a1.25 1.25 0 0 0-1.742-1.149l-1.053.452a.75.75 0 0 0 .59 1.378Z" fill="#000"/><path fill-rule="evenodd" clip-rule="evenodd" d="M12.209 3.264c-.867-1.889-3.55-1.889-4.418 0a.93.93 0 0 1-1.169.484c-1.949-.722-3.846 1.175-3.124 3.124a.93.93 0 0 1-.484 1.17c-1.889.866-1.889 3.55 0 4.417a.93.93 0 0 1 .484 1.169c-.722 1.948 1.175 3.846 3.124 3.124a.93.93 0 0 1 1.17.484c.866 1.889 3.55 1.889 4.417 0a.93.93 0 0 1 1.169-.484c1.949.722 3.846-1.175 3.124-3.124a.93.93 0 0 1 .484-1.17c1.889-.866 1.889-3.55 0-4.417a.93.93 0 0 1-.484-1.169c.722-1.949-1.175-3.846-3.124-3.124a.93.93 0 0 1-1.17-.484Zm-3.055.626a.93.93 0 0 1 1.692 0 2.43 2.43 0 0 0 3.053 1.265.93.93 0 0 1 1.196 1.196 2.43 2.43 0 0 0 1.265 3.053.93.93 0 0 1 0 1.692 2.43 2.43 0 0 0-1.265 3.053.93.93 0 0 1-1.196 1.196 2.43 2.43 0 0 0-3.053 1.265.93.93 0 0 1-1.692 0 2.43 2.43 0 0 0-3.053-1.265.93.93 0 0 1-1.196-1.196 2.43 2.43 0 0 0-1.265-3.053.93.93 0 0 1 0-1.692 2.43 2.43 0 0 0 1.265-3.053.93.93 0 0 1 1.196-1.196 2.43 2.43 0 0 0 3.053-1.265Z" fill="#000"/></svg>
